X:110
T:Looney Dollar Jig
R:jig
C:Bruce Osborne  --  Sept. 1992
Z:abc by bosborne@kos.net
M:6/8
L:1/8
K:A
c/B/|AcA EAE|CEA cBA|BcB EGB|gfe bge|\
AcA EAE|CEA cBA|BcB EGB|cAA A2:|
|:c/d/|eAA fAA|cBc Ace|dcd BAB|GFG GFE|\
eAA fAA|cBc Ace|dcd EGB|cAA A2:|
